X:1
T:Title
%%score { 1 | 2 }
L:1/8
Q:1/4=100
M:4/4
K:Eb
V:1 treble nm="Grand Piano"
V:2 bass 
V:1
 [Ec]>[D=B] [Ec]>[DB] [Ec]2 [F_d]2 | c4 B4 | B>=A B>A B2 c2 | [CA]8 | A>G A>G A2 F2 | [CE]4 [Ec]4 | %6
w: H.~Mitchell~&~I.~McPherson * * * * *||||||
 [DB]>[D=A] [DB]>[D_A] [DG]2 [DA]2 | [_DB]8 | [Ec]>[D=B] [Ec]>[DB] [Ec]2 [F_d]2 | c4 B4 | %10
w: ||||
 B>=A B>A B2 c2 | A8 | A>G A>G A2 F2 | [CE]4 [Ec]4 | c>=B c>B c2 _B2 | [CA]8 |] %16
w: ||||||
V:2
 [A,,A,]>[A,,A,] [A,,A,]>[A,,A,] [A,,A,]2 [A,,A,]2 | [E,A,E]4 [E,G,_D]4 | %2
 [E,G,_D]>[E,G,C] [E,G,D]>[E,G,C] [E,G,D]2 [E,G,E]2 | [A,,A,]8 | %4
 [_D,F,_D]>[D,F,D] [D,F,D]>[D,F,D] [D,F,D]2 [D,A,D]2 | [A,,A,]4 [A,,A,]4 | %6
 [B,,F,]>[B,,F,] [B,,F,]>[B,,F,] [B,,B,]2 [B,,A,]2 | [E,G,]8 | %8
 [A,,A,]>[A,,A,] [A,,A,]>[A,,A,] [A,,A,]2 [A,,A,]2 | [E,A,E]4 [E,G,_D]4 | %10
 [E,G,_D]>[E,G,C] [E,G,D]>[E,G,C] [E,G,D]2 [E,G,E]2 | [F,A,C]8 | %12
 [_D,F,_D]>[D,F,D] [D,F,D]>[D,F,D] [D,F,D]2 [D,A,D]2 | [A,,A,]4 [A,,A,]4 | %14
 [E,A,E]>[E,A,D] [E,A,E]>[E,A,D] [E,G,E]2 [E,G,_D]2 | [A,,A,]8 |] %16

